icons/svg/switch.svg

﻿<?xml version="1.0" encoding="utf-8"?>
<!DOCTYPE svg PUBLIC "-//W3C//DTD SVG 1.1//EN" "http://www.w3.org/Graphics/SVG/1.1/DTD/svg11.dtd">
<svg xmlns="http://www.w3.org/2000/svg" xmlns:xlink="http://www.w3.org/1999/xlink" version="1.1" baseProfile="full" width="24" height="24" viewBox="0 0 24.00 24.00" enable-background="new 0 0 24.00 24.00" xml:space="preserve">
	<path fill="#000000" fill-opacity="1" stroke-width="0.2" stroke-linejoin="round" d="M 13,18L 14,18C 14.5523,18 15,18.4477 15,19L 22,19L 22,21L 15,21C 15,21.5523 14.5523,22 14,22L 10,22C 9.44772,22 9.00001,21.5523 9.00001,21L 2,21L 2,19L 9.00001,19C 9.00001,18.4477 9.44772,18 10,18L 11,18L 11,16L 7.99999,16C 7.44771,16 6.99999,15.5523 6.99999,15L 7,3.00001C 7,2.44773 7.44771,2.00002 8,2.00002L 16,2.00002C 16.5523,2.00002 17,2.44773 17,3.00001L 17,15C 17,15.5523 16.5522,16 16,16L 13,16L 13,18 Z M 13,6.00001L 14,6.00001L 14,4.00002L 13,4.00002L 13,6.00001 Z M 9,4.00001L 9,6L 11,6L 11,4.00001L 9,4.00001 Z M 9,8.00001L 9,10L 11,10L 11,8.00001L 9,8.00001 Z M 9,12L 9,14L 11,14L 11,12L 9,12 Z "/>
</svg>

<svg xmlns="http://www.w3.org/2000/svg" version="1.1" baseProfile="full" width="24" height="24" viewBox="0 0 24.00 24.00" xml:space="preserve"><path fill="#000" fill-opacity="1" stroke-width=".2" stroke-linejoin="round" d="M13 18h1c.552 0 1 .448 1 1h7v2h-7c0 .552-.448 1-1 1h-4c-.552 0-1-.448-1-1H2v-2h7c0-.552.448-1 1-1h1v-2H8c-.552 0-1-.448-1-1V3c0-.552.448-1 1-1h8c.552 0 1 .448 1 1v12c0 .552-.448 1-1 1h-3v2zm0-12h1V4h-1v2zM9 4v2h2V4H9zm0 4v2h2V8H9zm0 4v2h2v-2H9z"/></svg>
